X: 14015
T: Frank's
R: reel
M: 4/4
K: Amajor
AcBA F2 AF|EFAB cABc|d3f ecAe|faec (3Bcd cB|
AcBA F2AF|EFAB cABc|d3f ecAc|BAGB A2 (3EFG|
AcBA F2 AF|EFAB cABc|d2 df ecAe|faec (3Bcd cB|
AcBA EFAF|EFAB cABc|df f2 ecAc|BAGB Aefg||
aAAg AAfA|effe cABc|d3f ecAc|Bcde fe (3efg|
aAAg AAfA|effe cABc|df f2 ecAc|BAGB Aefg|
aAAg AAfA|effe cABc|d3f eAce|faec (3Bcd cB|
AcBA F3A|EFAB cABc|d3f ecAc|BAGB A4||

